build/system/SmallArrowDownOutline.svg

<svg xmlns="http://www.w3.org/2000/svg" fill="none" viewBox="0 0 24 24" focusable="false"><path d="M0 0H24V24H0z"/><path fill="#74767B" d="M7.78858 9.99626C7.78858 9.81626 7.85858 9.64626 7.99858 9.51626C8.26858 9.27626 8.67858 9.29626 8.91858 9.55626L12.0648 13.0494L15.0826 9.56016C15.3226 9.29016 15.7326 9.28016 16.0026 9.52016C16.2626 9.76016 16.2826 10.1702 16.0426 10.4402L12.5848 14.4194C12.3048 14.7294 11.8248 14.7294 11.5448 14.4194L7.95858 10.4363C7.83858 10.3063 7.78858 10.1563 7.78858 9.99626Z"/></svg>

<svg xmlns="http://www.w3.org/2000/svg" fill="none" viewBox="0 0 24 24" focusable="false"><path fill="#74767B" d="M7.78 9.99c0-.18.07-.35.21-.48.27-.24.68-.22.92.04l3.15 3.49 3.02-3.48a.65.65 0 0 1 .92-.04c.26.24.28.65.04.92l-3.46 3.97c-.28.31-.76.31-1.04 0l-3.59-3.98a.63.63 0 0 1-.17-.44"/></svg>
